X:1
T:El Ay
T:El Ay
T:José Brocá
T:Vals para guitarra
T:by IMSLP
T:by IMSLP
C:José Broca
Z:by IMSLP
%%score ( 1 2 3 4 )
L:1/8
Q:1/4=100
M:3/8
K:A
V:1 treble-8 nm="Classical Guitar" snm="Guit."
V:2 treble-8 
V:3 treble-8 
V:4 treble-8 
V:1
"^Allegretto" (!2!c/!3!d/) | ee/>f/e/>f/ | [ce]x!0!e | ee/>f/e/>f/ | ex!0!e | %5
w: |||||
"^9a" !2!a/g/ b/a/ g/a/ |!-(!{/B} !-)!!4!g/!2!f/!1!e/f/!3!d/B/ | A/>B/ c[DGB] |"^har." [EA]D :| %9
w: (~) * * * * *|* * * * () *|||
 (!2!b/!1!^a/) | (c'/b/)!2!g/!0!e/!0!B/G/ | e^d (c/B/) | B[Ac]/B/[Ac]/B/ | g/>f/ [GBe] b/^a/ | %14
w: |* * (~) * * *||||
 (c'/b/)g/!0!e/!0!B/G/ | [FAc][FAc] z | [GB]/>e/ g[Af] | [Ge]/!-(!^d/ !-)!f/e/=d/B/ | Ae/>f/e/>f/ | %19
w: |||||
 [Ace]x!0![ce] | ee/>f/e/>f/ | exe | !2!a/g/ b/a/ g/a/ |!-(!{/d} !-)!g/f/^e/f/d/B/ | A/>B/ c[DGB] | %25
w: |||(~) * * * * *|||
 A"^har."D |:[K:D]"^C.10a" f/^g/ | ad'/f'/d'/d'/ | !1!d'/c'/c'/b/ d' | !0!e/a/!2!g/a/g/a/ | %30
w: ||||* * (~) * * *|
 [cg][df]"^10a" !3!f/g/ | !3![fa]/b/c'/d'/e'/f'/ | !1!f'[de'] !-(!!1!e'/!-)!^g/ | ^g2 (f/g/) | %34
w: * * (~) *|(~) * * * * *|||
 [ca]"^har."D :| A/>!4!d/ | (d/c/)c/c/ c |"^2a" (e/d/)[Ad]/d/ [Ad] | (!2!f/e/)[ce]/e/f/g/ | %39
w: ||||(~) * * * * *|
 !3!a/>!1!d'/ aa |{/e'} d'/>c'/ d'[gb] |{/b} [fa]/>[^e^g]/ [fa][Af] |{/f} [Ge]/>f/ g[Gc] | [Fd]2 :| %44
w: |||||
V:2
 x | z [Ac][Ac] | [A,A]2 !4![FA] | z [Bd][Bd] | [Bd]2 !1![Bd] | z [ce][ce] | D3 | E2 E, | [A,C]2 :| %9
w: ||* (~)||* (~)|||||
 x | F,3 | [FA][FA] z | B,2 x | E2 z | E,3 | CC=C | B,2 B, | E,2 x | x [Ac][Ac] | A,2 !4!A | E,3 | %21
w: ||||||||||* (~)||
 [Bd]2 [Bd] | z [ce][ce] | D3 | E2 E, | [A,CE]2 |:[K:D] x | z [fa][fa] | z [eg][eg] | %29
w: ||||||||
 z !3!!0![ce][ce] | A,D z | D3 | z B z | z [Bd]2 | A,2 :| x | z [EG][EG] | z FF | z G2 | %39
w: (~) *||||||||||
 !3!F!0!DF | [GB]2 G | D2 D | A,2 A, | D2 :| %44
w: (~) * *|||||
V:3
 x | A,3 | x!-(!{/a} !-)!c'2 | E,3 | x!-(!{/a} !-)!d'2 | A,3 | x3 | x3 | x2 :| x | x3 | x3 | %12
w: ||||||||||||
 x ^DD | z x2 | x3 | x3 | x3 | x3 | A,2 x | x!-(!{/a} !-)!c'2 | z [Bd][Bd] | x!-(!{/g} !-)!d'2 | %22
w: ||||||||||
 A,3 | x3 | x3 | x2 |:[K:D] x | D3 | A,3 | A,3 | x3 | x3 | !3!^G2 z | E3 | x2 :| x | A,3 | F,2 x | %38
w: ||||||||||(~)||||||
 A,3 | x3 | x3 | x3 | x3 | x2 :| %44
w: ||||||
V:4
 x | x3 | x3 | x3 | E,3 | x3 | x3 | x3 | x2 :| x | x3 | x3 | x3 | x3 | x3 | x3 | x3 | x3 | x3 | %19
 x3 | x3 | E,2 x | x3 | x3 | x3 | x2 |:[K:D] x | x3 | x3 | x3 | x3 | x3 | x3 | x3 | x2 :| x | x3 | %37
 x3 | x3 | x3 | x3 | x3 | x3 | x2 :| %44

